X:6198
T:Spar\'an Airgid na Caill\'i
O:england
C:Trad
R:Jig
M:6/8
K:DMix
L:1/8
A2D FED|A2d cAF|G2E EDE|c2d cAG|A2D FED|A2d cAF|
GFG cGE|1 EDD D2B:|2 EDD DFA|: d2e fed|ged cAA|G2E EDE|
c2d cAG|Add fed|ged cAA|GFG cGE|1 EDD DFA:|2 EDD D2 ||


